outputs/icons/file/maintenance_round.svg

<svg xmlns="http://www.w3.org/2000/svg" width="1200" height="1200" fill="none"><path fill="#000" d="M799.035 680.74c-4.88-4.88-12.795-4.88-17.68 0l-88.385 88.39c-4.88 4.88-4.88 12.795 0 17.675l237.94 237.94c29.29 29.29 76.775 29.29 106.065 0s29.29-76.775 0-106.065zM870 519.375c96.5 0 175-78.5 175-175 0-22.938-5.005-44.625-13.285-64.565-3.235-7.8-13.295-9.354-19.265-3.383L898.34 390.536c-4.885 4.882-12.795 4.882-17.68 0l-56.82-56.822c-4.885-4.882-4.885-12.796 0-17.678l114.11-114.109c5.97-5.971 4.415-16.031-3.385-19.269-19.94-8.278-41.625-13.283-64.565-13.283-96.5 0-175 78.5-175 175 0 20.5 4 40 10.5 58l-92.5 92.5-89-89 26.66-26.661c4.885-4.882 4.885-12.796 0-17.678L489 299.875l97.16-97.161c4.885-4.882 4.905-12.849-.36-17.311-58.87-49.877-147.275-47.052-202.8 8.472L214.839 362.036c-4.881 4.882-4.881 12.796 0 17.678l61.661 61.661H140.678a12.5 12.5 0 0 0-8.839 3.661l-23 23c-4.882 4.881-4.882 12.796 0 17.678l159.322 159.321c4.881 4.885 12.797 4.885 17.678 0l23-23a12.5 12.5 0 0 0 3.661-8.84v-136.32l61.661 61.66c4.882 4.885 12.797 4.885 17.678 0l26.661-26.66 89 89-317.488 317.49c-29.278 29.275-29.278 76.745 0 106.02 29.268 29.27 76.719 29.28 106 .025L812 508.875c18 6.5 37.5 10.5 58 10.5"/></svg>

<svg width="1200" height="1200" viewBox="0 0 1200 1200" fill="none" xmlns="http://www.w3.org/2000/svg"><path d="M799.035 680.74C794.155 675.86 786.24 675.86 781.355 680.74L692.97 769.13C688.09 774.01 688.09 781.925 692.97 786.805L930.91 1024.745C960.2 1054.035 1007.685 1054.035 1036.975 1024.745C1066.265 995.455 1066.265 947.97 1036.975 918.68L799.035 680.74Z" fill="#1D1E23"/><path d="M870 519.375C966.5 519.375 1045 440.875 1045 344.375C1045 321.437 1039.995 299.75 1031.715 279.81C1028.48 272.01 1018.42 270.456 1012.45 276.427L898.34 390.536C893.455 395.418 885.545 395.418 880.66 390.536L823.84 333.714C818.955 328.832 818.955 320.918 823.84 316.036L937.95 201.927C943.92 195.956 942.365 185.896 934.565 182.658C914.625 174.38 892.94 169.375 870 169.375C773.5 169.375 695 247.875 695 344.375C695 364.875 699 384.375 705.5 402.375L613 494.875L524 405.875L550.66 379.214C555.545 374.332 555.545 366.418 550.66 361.536L489 299.875L586.16 202.714C591.045 197.832 591.065 189.865 585.8 185.403C526.93 135.526 438.525 138.351 383 193.875L214.839 362.036C209.958 366.918 209.958 374.832 214.839 379.714L276.5 441.375H140.678C137.363 441.375 134.183 442.692 131.839 445.036L108.839 468.036C103.957 472.917 103.957 480.832 108.839 485.714L268.161 645.035C273.042 649.92 280.958 649.92 285.839 645.035L308.839 622.035C311.183 619.69 312.5 616.51 312.5 613.195V476.875L374.161 538.535C379.043 543.42 386.958 543.42 391.839 538.535L418.5 511.875L507.5 600.875L190.012 918.365C160.734 947.64 160.734 995.11 190.012 1024.385C219.28 1053.655 266.731 1053.665 296.012 1024.41L812 508.875C830 515.375 849.5 519.375 870 519.375Z" fill="#1D1E23"/></svg>
